X: 15
T: Taivas on sininen ja valkoinen
O: Trad Finland
Z: John Chambers <jc@trillian.mit.edu>
M: 2/4
L: 1/8
K: Am
|: "Am"A2 Ac | "Dm"ee ed | "E7"cB A^G | "Am"A2 cd \
|  "Am"e2 e2 | "Dm(G)"f2 ed | "E7(C)"e4 | "E7"e2z2 :|
|: "Am"e2 e2 | "Dm(F)"b2 a2 | "G7"gf ed | "C"e2 AB \
|  "Dm"cd ed | "E7"c2 BB | "Am"A4 | A2 z2 :|
%%sep 0 1 8cm
